assets/pokerchip.svg

<svg fill="none" height="20" viewBox="0 0 20 20" width="20" xmlns="http://www.w3.org/2000/svg"><path d="m10.0001 19.05h-.0001c-4.99818 0-9.05-4.0518-9.05-9.05 0-4.99818 4.05182-9.050001 9.05-9.050001 4.9982 0 9.05 4.051821 9.05 9.050001v.0001c-.009 4.9944-4.0555 9.0409-9.0499 9.0499zm7.3974-5.1838c.5709-1.0878.893-2.2888.9431-3.5162h-1.7004c-.0483.9292-.2924 1.8377-.7164 2.6659zm-3.7761 1.7069.8503 1.4737c1.0359-.6599 1.9146-1.5386 2.5745-2.5745l-1.4737-.8503c-.508.7787-1.1724 1.4431-1.9511 1.9511zm-.6046.351c-.8285.424-1.7373.6681-2.6668.7161v1.7004c1.2277-.0499 2.429-.3719 3.5171-.9428zm-3.3668.7161c-.92919-.0483-1.83771-.2924-2.66594-.7164l-.85023 1.4737c1.08776.5709 2.28875.893 3.51617.9431zm-5.22306-3.0188-1.47374.8503c.65988 1.0359 1.53866 1.9146 2.57453 2.5745l.85022-1.4737c-.77865-.508-1.4431-1.1724-1.95101-1.9511zm-1.0671-3.2714h-1.70043c.04987 1.2277.37187 2.429.94275 3.5171l1.47372-.8503c-.42402-.8285-.66803-1.7373-.71604-2.6668zm-1.70042-.7h1.70043c.04822-.9292.29234-1.83771.71633-2.66594l-1.47373-.85023c-.57084 1.08776-.89294 2.28875-.94303 3.51617zm4.71913-5.22306-.85024-1.47374c-1.03585.65988-1.91463 1.53866-2.57451 2.57453l1.47374.85022c.50792-.77865 1.17236-1.4431 1.95101-1.95101zm3.27145-1.0671v-1.70044c-1.22771.04988-2.42901.37188-3.51707.94276l.85024 1.47372c.82852-.42402 1.73736-.66803 2.66683-.71604zm-5.6 6.64016c0 3.2861 2.66391 5.95 5.95 5.95 3.2861 0 5.95-2.6639 5.95-5.9499-.0038-3.2846-2.6655-5.94633-5.95005-5.9501-3.28607.00003-5.94995 2.66393-5.94995 5.95zm6.3-8.34059v1.70044c.9292.04822 1.8377.29233 2.6659.71633l.8503-1.47373c-1.0878-.57084-2.2888-.89294-3.5162-.94304zm5.2231 4.71914 1.4737-.85024c-.6599-1.03585-1.5386-1.91463-2.5745-2.57451l-.8502 1.47374c.7786.50792 1.443 1.17236 1.951 1.95101zm2.7675 3.27145c-.0499-1.22771-.3719-2.42901-.9428-3.51707l-1.4737.85023c.424.82853.6681 1.73736.7161 2.66684z" fill="#fff" stroke="#fff" stroke-width=".1"/></svg>

<svg width="20" height="20" viewBox="0 0 20 20" fill="none" xmlns="http://www.w3.org/2000/svg">
<path d="M10.0001 19.05H10C5.00182 19.05 0.95 14.9982 0.95 10C0.95 5.00182 5.00182 0.949999 10 0.949999C14.9982 0.949999 19.05 5.00182 19.05 10V10.0001C19.041 14.9945 14.9945 19.041 10.0001 19.05ZM17.3975 13.8662C17.9684 12.7784 18.2905 11.5774 18.3406 10.35H16.6402C16.5919 11.2792 16.3478 12.1877 15.9238 13.0159L17.3975 13.8662ZM13.6214 15.5731L14.4717 17.0468C15.5076 16.3869 16.3863 15.5082 17.0462 14.4723L15.5725 13.622C15.0645 14.4007 14.4001 15.0651 13.6214 15.5731ZM13.0168 15.9241C12.1883 16.3481 11.2795 16.5922 10.35 16.6402V18.3406C11.5777 18.2907 12.779 17.9687 13.8671 17.3978L13.0168 15.9241ZM9.65 16.6402C8.72081 16.5919 7.81229 16.3478 6.98406 15.9238L6.13383 17.3975C7.22159 17.9684 8.42258 18.2905 9.65 18.3406V16.6402ZM4.42694 13.6214L2.9532 14.4717C3.61308 15.5076 4.49186 16.3863 5.52773 17.0462L6.37795 15.5725C5.5993 15.0645 4.93485 14.4001 4.42694 13.6214ZM3.35984 10.35H1.65941C1.70928 11.5777 2.03128 12.779 2.60216 13.8671L4.07588 13.0168C3.65186 12.1883 3.40785 11.2795 3.35984 10.35ZM1.65942 9.65H3.35985C3.40807 8.7208 3.65219 7.81229 4.07618 6.98406L2.60245 6.13383C2.03161 7.22159 1.70951 8.42258 1.65942 9.65ZM6.37855 4.42694L5.52831 2.9532C4.49246 3.61308 3.61368 4.49186 2.9538 5.52773L4.42754 6.37795C4.93546 5.5993 5.5999 4.93485 6.37855 4.42694ZM9.65 3.35984V1.6594C8.42229 1.70928 7.22099 2.03128 6.13293 2.60216L6.98317 4.07588C7.81169 3.65186 8.72053 3.40785 9.65 3.35984ZM4.05 10C4.05 13.2861 6.71391 15.95 10 15.95C13.2861 15.95 15.95 13.2861 15.95 10.0001C15.9462 6.7155 13.2845 4.05377 9.99995 4.05C6.71388 4.05003 4.05 6.71393 4.05 10ZM10.35 1.65941V3.35985C11.2792 3.40807 12.1877 3.65218 13.0159 4.07618L13.8662 2.60245C12.7784 2.03161 11.5774 1.70951 10.35 1.65941ZM15.5731 6.37855L17.0468 5.52831C16.3869 4.49246 15.5082 3.61368 14.4723 2.9538L13.6221 4.42754C14.4007 4.93546 15.0651 5.5999 15.5731 6.37855ZM18.3406 9.65C18.2907 8.42229 17.9687 7.22099 17.3978 6.13293L15.9241 6.98316C16.3481 7.81169 16.5922 8.72052 16.6402 9.65H18.3406Z" fill="white" stroke="white" stroke-width="0.1"/>
</svg>
